lib/svgs/rich-text.svg

<?xml version="1.0" encoding="UTF-8" standalone="no"?>
<svg width="20px" height="20px" viewBox="0 0 20 20" version="1.1" xmlns="http://www.w3.org/2000/svg" xmlns:xlink="http://www.w3.org/1999/xlink">
    <defs></defs>
    <g id="Icons" stroke="none" stroke-width="1" fill="none" fill-rule="evenodd">
        <g id="Web" transform="translate(-385.000000, -1418.000000)" fill="#000000">
            <g id="editor/rich-text" transform="translate(385.000000, 1418.000000)">
                <path d="M4.6,2 C4.26862915,2 4,2.26862915 4,2.6 L4,16.6 C4,16.9313708 4.26862915,17.2 4.6,17.2 L16.0545455,17.2 C16.3859163,17.2 16.6545455,16.9313708 16.6545455,16.6 L16.6545455,2.6 C16.6545455,2.26862915 16.3859163,2 16.0545455,2 L4.6,2 M15.4545455,3.20626221 L15.4729858,16 L5.2,16.0116211 L5.2,3.20662842 L4.6,3.2 L15.4545455,3.20626221 M7.14545455,14.2 L13.5090909,14.2 C13.8404618,14.2 14.1090909,13.9313708 14.1090909,13.6 C14.1090909,13.2686292 13.8404618,13 13.5090909,13 L7.14545455,13 C6.8140837,13 6.54545455,13.2686292 6.54545455,13.6 C6.54545455,13.9313708 6.8140837,14.2 7.14545455,14.2 M7.14545455,11.7 L13.5090909,11.7 C13.8404618,11.7 14.1090909,11.4313708 14.1090909,11.1 C14.1090909,10.7686292 13.8404618,10.5 13.5090909,10.5 L7.14545455,10.5 C6.8140837,10.5 6.54545455,10.7686292 6.54545455,11.1 C6.54545455,11.4313708 6.8140837,11.7 7.14545455,11.7 M7.14545455,5.18181818 C6.8140837,5.18181818 6.54545455,5.45044733 6.54545455,5.78181818 L6.54545455,8.32727273 C6.54545455,8.65864358 6.8140837,8.92727273 7.14545455,8.92727273 L9.69090909,8.92727273 C10.0222799,8.92727273 10.2909091,8.65864358 10.2909091,8.32727273 L10.2909091,5.78181818 C10.2909091,5.45044733 10.0222799,5.18181818 9.69090909,5.18181818 L7.14545455,5.18181818 M9.09090909,6.39620361 L9.11080322,7.72727273 L7.74545455,7.71401367 L7.74545455,6.38747559 L9.09090909,6.39620361 M12.2363636,8.7 L13.5090909,8.7 C13.8404618,8.7 14.1090909,8.43137085 14.1090909,8.1 C14.1090909,7.76862915 13.8404618,7.5 13.5090909,7.5 L12.2363636,7.5 C11.9049928,7.5 11.6363636,7.76862915 11.6363636,8.1 C11.6363636,8.43137085 11.9049928,8.7 12.2363636,8.7 M12.2363636,6.5 L13.5090909,6.5 C13.8404618,6.5 14.1090909,6.23137085 14.1090909,5.9 C14.1090909,5.56862915 13.8404618,5.3 13.5090909,5.3 L12.2363636,5.3 C11.9049928,5.3 11.6363636,5.56862915 11.6363636,5.9 C11.6363636,6.23137085 11.9049928,6.5 12.2363636,6.5" id="Shape"></path>
            </g>
        </g>
    </g>
</svg>

<svg xmlns="http://www.w3.org/2000/svg" viewBox="0 0 20 20">
    <path fill="#000" fill-rule="evenodd" d="M4.6 2a.6.6 0 0 0-.6.6v14a.6.6 0 0 0 .6.6h11.455a.6.6 0 0 0 .6-.6v-14a.6.6 0 0 0-.6-.6H4.6m10.855 1.206L15.473 16 5.2 16.012V3.207L4.6 3.2l10.855.006M7.145 14.2h6.364a.6.6 0 1 0 0-1.2H7.145a.6.6 0 0 0 0 1.2m0-2.5h6.364a.6.6 0 1 0 0-1.2H7.145a.6.6 0 0 0 0 1.2m0-6.518a.6.6 0 0 0-.6.6v2.545a.6.6 0 0 0 .6.6h2.546a.6.6 0 0 0 .6-.6V5.782a.6.6 0 0 0-.6-.6H7.145m1.946 1.214l.02 1.331-1.366-.013V6.387l1.346.01M12.236 8.7h1.273a.6.6 0 1 0 0-1.2h-1.273a.6.6 0 0 0 0 1.2m0-2.2h1.273a.6.6 0 1 0 0-1.2h-1.273a.6.6 0 0 0 0 1.2"/>
</svg>
